X: 7
T: The Barren Rocks Of Aden
R: polka
M: 2/4
L: 1/8
K: Dmaj
|:e|f>g fe|df Ad|ce Ad/e/|fA de|
f>g fe|df Ad|ce Af/e/|d2 d:|
f/g/|a>f df|eg Ae/f/|g>e ce|df Af/g/|
a>f df|eg Ae/f/|ge ce|d2 d |
f/g/|a/f/d/f/ a/f/d/f/|eg Ae/f/|g/e/c/e/ g/e/c/e/|df Af/g/|
a/f/d/f/ a/f/d/f/|eg Ae/f/|ge ce|d2 d |]


Tune 3640	Setting 16647

